X:691
T:Ancient and Hon. Artillery
C:E. Kendall
S:Bruce & Emmett's Drummers and Fifers Guide (1862), p. 69
M:2/4
L:1/16
Q:1/4=100
K:D
%%MIDI program 72
%%MIDI transpose 8
%%MIDI ratio 3 1
ag|f2d2 g2e2|a2ba gfed|cdef gece|dcec A(a^ga)|f2d2 g2e2|
a2ba gfed|cdef gece|d2f2d2::fg|adMd2 AdMd2|geMe2 BeMe2|adMd2 beMe2|
ceMe2 cAMA2|adMd2 AdMd2|geMe2 BeMe2|adMd2 (ba).e.d|cABc d2:|
